X:1
T:Prelude in C Major, BWV 846
C:J.S. Bach
M:4/4
L:1/16
K:C
z2EG CEG2 z2EG CEG2|z2DF ADF2 z2DF ADF2|
z2DG BDG2 z2DG BDG2|z2CE ACE2 z2CE ACE2|
z2CE ADE2 z2CE ADE2|z2DA DA^F2 z2DA DA^F2|
z2DG BDG2 z2DG BDG2|z2EG CEG2 z2EG CEG2|
z2EA CEA2 z2EA CEA2|z2^FG D^FG2 z2^FG D^FG2|
z2GA EGA2 z2GA EGA2|z2^FA D^FA2 z2^FA D^FA2|
z2GD BD_E2 z2GD BDE2|z2GC GCE2 z2GC GCE2|
z2_AF A_BF2 z2AF ABF2|z2GF GBF2 z2GF GBF2|
